dist/assets/img/pay/3.svg

<svg width="80" height="70" viewBox="0 0 80 70" fill="none" xmlns="http://www.w3.org/2000/svg">
<g clip-path="url(#clip0)">
<path d="M80 34.9999C80 46.5555 69.3333 55.9999 56 55.9999C42.7936 55.9999 32 46.5555 32 34.9999C32 23.4444 42.6667 13.9999 55.873 13.9999C69.3333 13.9999 80 23.4444 80 34.9999Z" fill="#FFB600"/>
<path d="M56 13.9999C69.2063 13.9999 80 23.4444 80 34.9999C80 46.5555 69.3333 55.9999 56 55.9999C42.7936 55.9999 32 46.5555 32 34.9999" fill="#F7981D"/>
<path d="M55.999 13.9999C69.2054 13.9999 79.999 23.4444 79.999 34.9999C79.999 46.5555 69.3324 55.9999 55.999 55.9999" fill="#FF8500"/>
<path d="M23.746 13.9999C10.6667 14.1111 0 23.4444 0 34.9999C0 46.5555 10.6667 55.9999 24 55.9999C30.2222 55.9999 35.8095 53.8888 40.127 50.5555C41.0159 49.8888 41.7778 49.111 42.5397 48.3333H37.5873C36.9524 47.6666 36.3175 46.8888 35.8095 46.2222H44.3175C44.8254 45.5555 45.3333 44.7777 45.7143 43.9999H34.4127C34.0317 43.3333 33.6508 42.5555 33.3968 41.7777H46.6032C47.3651 39.6666 47.873 37.4444 47.873 35.111C47.873 33.5555 47.619 32.111 47.3651 30.6666H32.6349C32.7619 29.8888 33.0159 29.2222 33.2698 28.4444H46.4762C46.2222 27.6666 45.8413 26.8888 45.4603 26.2222H34.2857C34.6667 25.4444 35.1746 24.7777 35.6825 23.9999H44.1905C43.6825 23.2222 43.0476 22.4444 42.2857 21.7777H37.5873C38.3492 20.9999 39.1111 20.3333 40 19.6666C35.8095 16.2222 30.0952 14.2222 23.873 14.2222C23.873 13.9999 23.873 13.9999 23.746 13.9999Z" fill="#FF5050"/>
<path d="M0 35C0 46.5556 10.6667 56 24 56C30.2222 56 35.8095 53.8889 40.127 50.5556C41.0159 49.8889 41.7778 49.1111 42.5397 48.3333H37.5873C36.9524 47.6667 36.3175 46.8889 35.8095 46.2222H44.3175C44.8254 45.5556 45.3333 44.7778 45.7143 44H34.4127C34.0317 43.3333 33.6508 42.5556 33.3968 41.7778H46.6032C47.3651 39.6667 47.873 37.4444 47.873 35.1111C47.873 33.5556 47.619 32.1111 47.3651 30.6667H32.6349C32.7619 29.8889 33.0159 29.2222 33.2698 28.4445H46.4762C46.2222 27.6667 45.8413 26.8889 45.4603 26.2222H34.2857C34.6667 25.4445 35.1746 24.7778 35.6825 24H44.1905C43.6825 23.2222 43.0476 22.4445 42.2857 21.7778H37.5873C38.3492 21 39.1111 20.3333 40 19.6667C35.8095 16.2222 30.0952 14.2222 23.873 14.2222H23.746" fill="#E52836"/>
<path d="M24.0001 56C30.2223 56 35.8096 53.8889 40.127 50.5556C41.0159 49.8889 41.7778 49.1111 42.5397 48.3333H37.5874C36.9524 47.6667 36.3175 46.8889 35.8096 46.2222H44.3175C44.8255 45.5556 45.3334 44.7778 45.7143 44H34.4128C34.0318 43.3333 33.6509 42.5556 33.3969 41.7778H46.6032C47.3651 39.6667 47.8731 37.4444 47.8731 35.1111C47.8731 33.5556 47.6191 32.1111 47.3651 30.6667H32.635C32.762 29.8889 33.0159 29.2222 33.2699 28.4445H46.4762C46.2223 27.6667 45.8413 26.8889 45.4604 26.2222H34.2858C34.6667 25.4445 35.1747 24.7778 35.6826 24H44.1905C43.6826 23.2222 43.0477 22.4445 42.2858 21.7778H37.5874C38.3493 21 39.1112 20.3333 40.0001 19.6667C35.8096 16.2222 30.0953 14.2222 23.8731 14.2222H23.7461" fill="#CB2026"/>
<path d="M32.5077 40.3334L32.8887 38.4445C32.7617 38.4445 32.5077 38.5556 32.2538 38.5556C31.3649 38.5556 31.2379 38.1112 31.3649 37.8889L32.1268 34H33.5236L33.9046 31.8889H32.6347L32.8887 30.5556H30.349C30.349 30.5556 28.8252 37.8889 28.8252 38.7778C28.8252 40.1112 29.7141 40.6667 30.8569 40.6667C31.6188 40.6667 32.2538 40.4445 32.5077 40.3334Z" fill="white"/>
<path d="M33.3965 36.7778C33.3965 39.889 35.8092 40.6667 37.8409 40.6667C39.7457 40.6667 40.5076 40.3334 40.5076 40.3334L41.0155 38.2223C41.0155 38.2223 39.6187 38.7778 38.3489 38.7778C35.5552 38.7778 36.0632 37.0001 36.0632 37.0001H41.2695C41.2695 37.0001 41.6505 35.5556 41.6505 35.0001C41.6505 33.5556 40.7616 31.7779 37.9679 31.7779C35.3012 31.5556 33.3965 34.0001 33.3965 36.7778ZM37.8409 33.5556C39.2378 33.5556 38.9838 35.0001 38.9838 35.1112H36.1901C36.1901 35.0001 36.4441 33.5556 37.8409 33.5556Z" fill="white"/>
<path d="M53.9685 40.3333L54.4764 37.8889C54.4764 37.8889 53.2066 38.4444 52.3177 38.4444C50.5399 38.4444 49.778 37.2222 49.778 35.8889C49.778 33.2222 51.3018 31.7778 53.0796 31.7778C54.3494 31.7778 55.3653 32.4444 55.3653 32.4444L55.7463 30.1111C55.7463 30.1111 54.2225 29.5555 52.8256 29.5555C49.905 29.5555 46.9844 31.7778 46.9844 36C46.9844 38.7778 48.5082 40.6666 51.5558 40.6666C52.5717 40.6666 53.9685 40.3333 53.9685 40.3333Z" fill="white"/>
<path d="M18.5393 31.5555C16.7615 31.5555 15.4916 32 15.4916 32L15.1107 33.8889C15.1107 33.8889 16.2536 33.4444 17.9043 33.4444C18.7932 33.4444 19.5551 33.5555 19.5551 34.2222C19.5551 34.6666 19.4282 34.7778 19.4282 34.7778C19.4282 34.7778 18.6663 34.7778 18.2853 34.7778C16.1266 34.7778 13.7139 35.5555 13.7139 38.1111C13.7139 40.1111 15.2377 40.5555 16.1266 40.5555C17.9043 40.5555 18.6663 39.5555 18.7932 39.5555L18.6663 40.4444H20.952L21.9678 34.3333C21.9678 31.6667 19.4282 31.5555 18.5393 31.5555ZM19.0472 36.5555C19.0472 36.8889 18.7932 38.6666 17.2694 38.6666C16.5075 38.6666 16.2536 38.1111 16.2536 37.7778C16.2536 37.2222 16.6345 36.4444 18.5393 36.4444C18.9202 36.5555 19.0472 36.5555 19.0472 36.5555Z" fill="white"/>
<path d="M24.3796 40.5556C25.0145 40.5556 28.1891 40.6667 28.1891 37.6667C28.1891 34.8889 25.1415 35.4445 25.1415 34.3333C25.1415 33.7778 25.6495 33.5556 26.5383 33.5556C26.9193 33.5556 28.3161 33.6667 28.3161 33.6667L28.6971 31.6667C28.6971 31.6667 27.8082 31.4445 26.2844 31.4445C24.3796 31.4445 22.4749 32.1111 22.4749 34.3333C22.4749 36.8889 25.6495 36.6667 25.6495 37.6667C25.6495 38.3333 24.7606 38.4445 24.1257 38.4445C22.9828 38.4445 21.8399 38.1111 21.8399 38.1111L21.459 40.1111C21.586 40.3333 22.2209 40.5556 24.3796 40.5556Z" fill="white"/>
<path d="M75.0467 29.7778L74.5388 32.7778C74.5388 32.7778 73.5229 31.6667 72.1261 31.6667C69.8403 31.6667 67.8086 34.1111 67.8086 37C67.8086 38.7778 68.8245 40.6667 70.9832 40.6667C72.507 40.6667 73.3959 39.7778 73.3959 39.7778L73.2689 40.5555H75.8086L77.7134 29.8889L75.0467 29.7778ZM73.9038 35.6667C73.9038 36.8889 73.2689 38.4444 71.8721 38.4444C70.9832 38.4444 70.4753 37.7778 70.4753 36.6667C70.4753 34.8889 71.3641 33.7778 72.507 33.7778C73.3959 33.7778 73.9038 34.3333 73.9038 35.6667Z" fill="white"/>
<path d="M4.69785 40.4444L6.22166 32.4444L6.47563 40.4444H8.25341L11.555 32.4444L10.1582 40.4444H12.8248L14.8566 29.7778H10.6661L8.12643 36.3333L7.99944 29.7778H4.3169L2.28516 40.4444H4.69785Z" fill="white"/>
<path d="M44.0632 40.4444C44.8251 36.7777 44.9521 33.7777 46.7299 34.3333C46.9838 32.8888 47.3648 32.3333 47.6187 31.7777C47.6187 31.7777 47.4918 31.7777 47.1108 31.7777C45.9679 31.7777 45.0791 33.111 45.0791 33.111L45.333 31.8888H42.9203L41.2695 40.5555H44.0632V40.4444Z" fill="white"/>
<path d="M59.8088 31.5555C58.031 31.5555 56.7612 32 56.7612 32L56.3802 33.8889C56.3802 33.8889 57.5231 33.4444 59.1739 33.4444C60.0628 33.4444 60.8247 33.5555 60.8247 34.2222C60.8247 34.6666 60.6977 34.7778 60.6977 34.7778C60.6977 34.7778 59.9358 34.7778 59.5548 34.7778C57.3961 34.7778 54.9834 35.5555 54.9834 38.1111C54.9834 40.1111 56.5072 40.5555 57.3961 40.5555C59.1739 40.5555 59.9358 39.5555 60.0628 39.5555L59.9358 40.4444H62.2215L63.2374 34.3333C63.3644 31.6667 60.6977 31.5555 59.8088 31.5555ZM60.4437 36.5555C60.4437 36.8889 60.1898 38.6666 58.6659 38.6666C57.904 38.6666 57.6501 38.1111 57.6501 37.7778C57.6501 37.2222 58.031 36.4444 59.9358 36.4444C60.3167 36.5555 60.3167 36.5555 60.4437 36.5555Z" fill="white"/>
<path d="M65.3962 40.4444C66.1581 36.7777 66.2851 33.7777 68.0629 34.3333C68.3168 32.8888 68.6978 32.3333 68.9517 31.7777C68.9517 31.7777 68.8248 31.7777 68.4438 31.7777C67.301 31.7777 66.4121 33.111 66.4121 33.111L66.666 31.8888H64.2533L62.6025 40.5555H65.3962V40.4444Z" fill="white"/>
<path d="M28.5713 38.7778C28.5713 40.1112 29.4602 40.6667 30.603 40.6667C31.4919 40.6667 32.2538 40.4445 32.5078 40.3334L32.8887 38.4445C32.7618 38.4445 32.5078 38.5556 32.2538 38.5556C31.3649 38.5556 31.238 38.1112 31.3649 37.8889L32.1268 34H33.5237L33.9046 31.8889H32.6348L32.8887 30.5556" fill="#DCE5E5"/>
<path d="M34.666 36.7778C34.666 39.889 35.8089 40.6667 37.8406 40.6667C39.7454 40.6667 40.5073 40.3334 40.5073 40.3334L41.0152 38.2223C41.0152 38.2223 39.6184 38.7778 38.3486 38.7778C35.5549 38.7778 36.0628 37.0001 36.0628 37.0001H41.2692C41.2692 37.0001 41.6501 35.5556 41.6501 35.0001C41.6501 33.5556 40.7613 31.7779 37.9676 31.7779C35.3009 31.5556 34.666 34.0001 34.666 36.7778ZM37.8406 33.5556C39.2374 33.5556 39.4914 35.0001 39.4914 35.1112H36.1898C36.1898 35.0001 36.4438 33.5556 37.8406 33.5556Z" fill="#DCE5E5"/>
<path d="M53.9682 40.3333L54.4761 37.8889C54.4761 37.8889 53.2063 38.4444 52.3174 38.4444C50.5396 38.4444 49.7777 37.2222 49.7777 35.8889C49.7777 33.2222 51.3015 31.7778 53.0793 31.7778C54.3491 31.7778 55.365 32.4444 55.365 32.4444L55.746 30.1111C55.746 30.1111 54.2222 29.5555 52.8253 29.5555C49.9047 29.5555 48.2539 31.7778 48.2539 36C48.2539 38.7778 48.5079 40.6666 51.5555 40.6666C52.5714 40.6666 53.9682 40.3333 53.9682 40.3333Z" fill="#DCE5E5"/>
<path d="M15.1107 33.9999C15.1107 33.9999 16.2536 33.5555 17.9043 33.5555C18.7932 33.5555 19.5551 33.6666 19.5551 34.3333C19.5551 34.7777 19.4282 34.8888 19.4282 34.8888C19.4282 34.8888 18.6663 34.8888 18.2853 34.8888C16.1266 34.8888 13.7139 35.6666 13.7139 38.2221C13.7139 40.2221 15.2377 40.6666 16.1266 40.6666C17.9043 40.6666 18.6663 39.6666 18.7932 39.6666L18.6663 40.5555H20.952L21.9678 34.4444C21.9678 31.8888 19.4282 31.7777 18.4123 31.7777L15.1107 33.9999ZM20.317 36.5555C20.317 36.8888 18.7932 38.6666 17.2694 38.6666C16.5075 38.6666 16.2536 38.111 16.2536 37.7777C16.2536 37.2221 16.6345 36.4444 18.5393 36.4444C18.9202 36.5555 20.317 36.5555 20.317 36.5555Z" fill="#DCE5E5"/>
<path d="M21.5869 40.3333C21.5869 40.3333 22.3488 40.5556 24.5075 40.5556C25.1425 40.5556 28.3171 40.6667 28.3171 37.6667C28.3171 34.8889 25.2695 35.4445 25.2695 34.3333C25.2695 33.7778 25.7774 33.5556 26.6663 33.5556C27.0472 33.5556 28.4441 33.6667 28.4441 33.6667L28.825 31.6667C28.825 31.6667 27.9361 31.4445 26.4123 31.4445C24.5075 31.4445 23.8726 32.1111 23.8726 34.3333C23.8726 36.8889 25.7774 36.6667 25.7774 37.6667C25.7774 38.3333 24.8885 38.4445 24.2536 38.4445" fill="#DCE5E5"/>
<path d="M74.5388 32.7777C74.5388 32.7777 73.523 31.6666 72.1262 31.6666C69.8404 31.6666 69.0786 34.1111 69.0786 37C69.0786 38.7777 68.8246 40.6666 70.9833 40.6666C72.5071 40.6666 73.396 39.7777 73.396 39.7777L73.269 40.5555H75.8087L77.7134 29.8889L74.5388 32.7777ZM74.4119 35.6666C74.4119 36.8888 73.269 38.4444 71.8722 38.4444C70.9833 38.4444 70.4754 37.7777 70.4754 36.6666C70.4754 34.8888 71.3643 33.7777 72.5071 33.7777C73.396 33.7777 74.4119 34.3333 74.4119 35.6666Z" fill="#DCE5E5"/>
<path d="M4.69785 40.4444L6.22166 32.4444L6.47563 40.4444H8.25341L11.555 32.4444L10.1582 40.4444H12.8248L14.8566 29.7778H11.682L8.12643 36.3333L7.99944 29.7778H6.60262L2.28516 40.4444H4.69785Z" fill="#DCE5E5"/>
<path d="M41.3955 40.4444H44.0622C44.8241 36.7777 44.9511 33.7777 46.7288 34.3333C46.9828 32.8888 47.3638 32.3333 47.6177 31.7777C47.6177 31.7777 47.4907 31.7777 47.1098 31.7777C45.9669 31.7777 45.078 33.111 45.078 33.111L45.332 31.8888" fill="#DCE5E5"/>
<path d="M56.3802 33.9999C56.3802 33.9999 57.5231 33.5555 59.1739 33.5555C60.0628 33.5555 60.8247 33.6666 60.8247 34.3333C60.8247 34.7777 60.6977 34.8888 60.6977 34.8888C60.6977 34.8888 59.9358 34.8888 59.5548 34.8888C57.3961 34.8888 54.9834 35.6666 54.9834 38.2221C54.9834 40.2221 56.5072 40.6666 57.3961 40.6666C59.1739 40.6666 59.9358 39.6666 60.0628 39.6666L59.9358 40.5555H62.2215L63.2374 34.4444C63.2374 31.8888 60.6977 31.7777 59.6818 31.7777L56.3802 33.9999ZM61.5866 36.5555C61.5866 36.8888 60.0628 38.6666 58.539 38.6666C57.7771 38.6666 57.5231 38.111 57.5231 37.7777C57.5231 37.2221 57.904 36.4444 59.8088 36.4444C60.3167 36.5555 61.5866 36.5555 61.5866 36.5555Z" fill="#DCE5E5"/>
<path d="M62.7285 40.4444H65.3952C66.1571 36.7777 66.2841 33.7777 68.0618 34.3333C68.3158 32.8888 68.6968 32.3333 68.9507 31.7777C68.9507 31.7777 68.8238 31.7777 68.4428 31.7777C67.2999 31.7777 66.4111 33.111 66.4111 33.111L66.665 31.8888" fill="#DCE5E5"/>
</g>
<defs>
<clipPath id="clip0">
<rect width="80" height="70" fill="white"/>
</clipPath>
</defs>
</svg>

<svg width="80" height="70" fill="none" xmlns="http://www.w3.org/2000/svg"><g clip-path="url(#clip0)"><path d="M80 35c0 11.556-10.667 21-24 21-13.206 0-24-9.444-24-21s10.667-21 23.873-21C69.333 14 80 23.444 80 35z" fill="#FFB600"/><path d="M56 14c13.206 0 24 9.444 24 21S69.333 56 56 56c-13.206 0-24-9.444-24-21" fill="#F7981D"/><path d="M55.999 14c13.206 0 24 9.444 24 21s-10.667 21-24 21" fill="#FF8500"/><path d="M23.746 14C10.666 14.11 0 23.444 0 35s10.667 21 24 21c6.222 0 11.81-2.111 16.127-5.444.889-.667 1.65-1.445 2.413-2.223h-4.953a26.181 26.181 0 01-1.778-2.11h8.509A13.818 13.818 0 0045.714 44H34.413c-.381-.667-.762-1.444-1.016-2.222h13.206c.762-2.111 1.27-4.334 1.27-6.667 0-1.555-.254-3-.508-4.444h-14.73c.127-.778.38-1.445.635-2.223h13.206c-.254-.777-.635-1.555-1.016-2.222H34.286c.38-.778.889-1.444 1.396-2.222h8.508a10.82 10.82 0 00-1.904-2.222h-4.699A20.516 20.516 0 0140 19.667c-4.19-3.445-9.905-5.445-16.127-5.445 0-.222 0-.222-.127-.222z" fill="#FF5050"/><path d="M0 35c0 11.556 10.667 21 24 21 6.222 0 11.81-2.111 16.127-5.444.889-.667 1.65-1.445 2.413-2.223h-4.953a26.146 26.146 0 01-1.778-2.11h8.509A13.813 13.813 0 0045.714 44H34.413c-.381-.667-.762-1.444-1.016-2.222h13.206c.762-2.111 1.27-4.334 1.27-6.667 0-1.555-.254-3-.508-4.444h-14.73c.127-.778.38-1.445.635-2.223h13.206c-.254-.777-.635-1.555-1.016-2.222H34.286c.38-.777.889-1.444 1.396-2.222h8.508a10.817 10.817 0 00-1.904-2.222h-4.699A20.507 20.507 0 0140 19.667c-4.19-3.445-9.905-5.445-16.127-5.445h-.127" fill="#E52836"/><path d="M24 56c6.222 0 11.81-2.111 16.127-5.444.889-.667 1.65-1.445 2.413-2.223h-4.953a26.105 26.105 0 01-1.777-2.11h8.508A13.8 13.8 0 0045.714 44H34.413c-.381-.667-.762-1.444-1.016-2.222h13.206c.762-2.111 1.27-4.334 1.27-6.667 0-1.555-.254-3-.508-4.444h-14.73c.127-.778.38-1.445.635-2.223h13.206c-.254-.777-.635-1.555-1.016-2.222H34.286c.38-.777.889-1.444 1.397-2.222h8.508a10.814 10.814 0 00-1.905-2.222h-4.699A20.507 20.507 0 0140 19.667c-4.19-3.445-9.905-5.445-16.127-5.445h-.127" fill="#CB2026"/><path d="M32.508 40.333l.38-1.889c-.126 0-.38.112-.634.112-.89 0-1.016-.445-.89-.667L32.128 34h1.397l.38-2.111h-1.27l.255-1.333h-2.54s-1.524 7.333-1.524 8.222c0 1.333.89 1.889 2.032 1.889.762 0 1.397-.223 1.65-.334zm.889-3.555c0 3.111 2.412 3.889 4.444 3.889 1.905 0 2.667-.334 2.667-.334l.508-2.11s-1.397.555-2.667.555c-2.794 0-2.286-1.778-2.286-1.778h5.206s.382-1.444.382-2c0-1.444-.89-3.222-3.683-3.222-2.667-.222-4.572 2.222-4.572 5zm4.444-3.222c1.397 0 1.143 1.444 1.143 1.555H36.19c0-.11.254-1.555 1.65-1.555zm16.127 6.777l.508-2.444s-1.27.555-2.158.555c-1.778 0-2.54-1.222-2.54-2.555 0-2.667 1.524-4.111 3.302-4.111 1.27 0 2.285.666 2.285.666l.381-2.333s-1.524-.556-2.92-.556c-2.921 0-5.842 2.223-5.842 6.445 0 2.778 1.524 4.667 4.572 4.667 1.016 0 2.413-.334 2.413-.334zM18.54 31.555c-1.778 0-3.048.445-3.048.445l-.381 1.889s1.143-.445 2.793-.445c.89 0 1.651.111 1.651.778 0 .445-.127.556-.127.556h-1.143c-2.158 0-4.571.778-4.571 3.333 0 2 1.524 2.445 2.413 2.445 1.777 0 2.54-1 2.666-1l-.127.888h2.286l1.016-6.11c0-2.667-2.54-2.779-3.429-2.779zm.507 5c0 .334-.254 2.112-1.778 2.112-.761 0-1.015-.556-1.015-.89 0-.555.38-1.333 2.285-1.333.381.111.508.111.508.111zm5.333 4.001c.635 0 3.81.11 3.81-2.89 0-2.777-3.049-2.221-3.049-3.333 0-.555.509-.777 1.397-.777.381 0 1.778.11 1.778.11l.381-2s-.889-.221-2.413-.221c-1.904 0-3.81.666-3.81 2.888 0 2.556 3.175 2.334 3.175 3.334 0 .666-.888.777-1.523.777-1.143 0-2.286-.333-2.286-.333l-.381 2c.127.222.762.445 2.92.445zm50.667-10.778l-.508 3s-1.016-1.111-2.413-1.111c-2.286 0-4.317 2.444-4.317 5.333 0 1.778 1.016 3.667 3.174 3.667 1.524 0 2.413-.89 2.413-.89l-.127.779h2.54l1.904-10.667-2.666-.111zm-1.143 5.889c0 1.222-.635 2.777-2.032 2.777-.889 0-1.397-.666-1.397-1.777 0-1.778.89-2.89 2.032-2.89.889 0 1.397.556 1.397 1.89zM4.698 40.444l1.524-8 .254 8h1.777l3.302-8-1.397 8h2.667l2.032-10.666h-4.19l-2.54 6.555-.128-6.555H4.317L2.285 40.444h2.413zm39.365 0c.762-3.666.89-6.666 2.667-6.11.254-1.445.635-2 .889-2.556h-.508c-1.143 0-2.032 1.333-2.032 1.333l.254-1.222H42.92l-1.65 8.667h2.793v-.112zm15.746-8.889c-1.778 0-3.048.445-3.048.445l-.38 1.889s1.142-.445 2.793-.445c.889 0 1.65.111 1.65.778 0 .445-.126.556-.126.556h-1.143c-2.159 0-4.572.778-4.572 3.333 0 2 1.524 2.445 2.413 2.445 1.778 0 2.54-1 2.667-1l-.127.888h2.285l1.016-6.11c.127-2.667-2.54-2.779-3.428-2.779zm.635 5c0 .334-.254 2.112-1.778 2.112-.762 0-1.016-.556-1.016-.89 0-.555.381-1.333 2.286-1.333.38.111.38.111.508.111zm4.952 3.889c.762-3.666.89-6.666 2.667-6.11.254-1.445.635-2 .889-2.556h-.508c-1.143 0-2.032 1.333-2.032 1.333l.254-1.222h-2.413l-1.65 8.667h2.793v-.112z" fill="#fff"/><path d="M28.571 38.778c0 1.333.89 1.889 2.032 1.889.889 0 1.65-.223 1.905-.334l.38-1.889c-.126 0-.38.112-.634.112-.89 0-1.016-.445-.89-.667L32.128 34h1.397l.38-2.111h-1.27l.255-1.333m1.776 6.222c0 3.111 1.143 3.889 3.175 3.889 1.904 0 2.666-.334 2.666-.334l.508-2.11s-1.397.555-2.666.555c-2.794 0-2.286-1.778-2.286-1.778h5.206s.381-1.444.381-2c0-1.444-.889-3.222-3.682-3.222-2.667-.222-3.302 2.222-3.302 5zm3.175-3.222c1.396 0 1.65 1.444 1.65 1.555H36.19c0-.11.254-1.555 1.65-1.555zm16.127 6.777l.508-2.444s-1.27.555-2.159.555c-1.777 0-2.54-1.222-2.54-2.555 0-2.667 1.524-4.111 3.302-4.111 1.27 0 2.286.666 2.286.666l.381-2.333s-1.524-.556-2.92-.556c-2.921 0-4.572 2.223-4.572 6.445 0 2.778.254 4.667 3.302 4.667 1.015 0 2.412-.334 2.412-.334zM15.11 34s1.144-.444 2.794-.444c.89 0 1.651.11 1.651.777 0 .445-.127.556-.127.556h-1.143c-2.158 0-4.571.778-4.571 3.333 0 2 1.524 2.445 2.413 2.445 1.777 0 2.54-1 2.666-1l-.127.889h2.286l1.016-6.112c0-2.555-2.54-2.666-3.556-2.666L15.111 34zm5.207 2.556c0 .333-1.524 2.11-3.048 2.11-.761 0-1.015-.555-1.015-.888 0-.556.38-1.334 2.285-1.334.381.111 1.778.111 1.778.111zm1.27 3.777s.762.223 2.92.223c.635 0 3.81.11 3.81-2.89 0-2.777-3.047-2.221-3.047-3.333 0-.555.507-.777 1.396-.777.381 0 1.778.11 1.778.11l.381-2s-.889-.221-2.413-.221c-1.904 0-2.54.666-2.54 2.888 0 2.556 1.905 2.334 1.905 3.334 0 .666-.889.777-1.523.777m50.285-5.666s-1.016-1.111-2.413-1.111c-2.286 0-3.047 2.444-3.047 5.333 0 1.778-.254 3.667 1.904 3.667 1.524 0 2.413-.89 2.413-.89l-.127.779h2.54l1.904-10.667-3.174 2.889zm-.127 2.889c0 1.222-1.143 2.777-2.54 2.777-.889 0-1.397-.666-1.397-1.777 0-1.778.89-2.89 2.032-2.89.889 0 1.905.556 1.905 1.89zM4.698 40.444l1.524-8 .254 8h1.777l3.302-8-1.397 8h2.667l2.032-10.666h-3.175l-3.556 6.555L8 29.778H6.603L2.285 40.444h2.413zm36.697 0h2.667c.762-3.666.89-6.666 2.667-6.11.254-1.445.635-2 .889-2.556h-.508c-1.143 0-2.032 1.333-2.032 1.333l.254-1.222M56.38 34s1.143-.444 2.794-.444c.889 0 1.65.11 1.65.777 0 .445-.126.556-.126.556h-1.143c-2.159 0-4.572.778-4.572 3.333 0 2 1.524 2.445 2.413 2.445 1.778 0 2.54-1 2.667-1l-.127.889h2.285l1.016-6.112c0-2.555-2.54-2.666-3.555-2.666L56.38 34zm5.207 2.556c0 .333-1.524 2.11-3.048 2.11-.762 0-1.016-.555-1.016-.888 0-.556.381-1.334 2.286-1.334.508.111 1.778.111 1.778.111zm1.141 3.888h2.667c.762-3.666.89-6.666 2.667-6.11.254-1.445.635-2 .889-2.556h-.508c-1.143 0-2.032 1.333-2.032 1.333l.254-1.222" fill="#DCE5E5"/></g><defs><clipPath id="clip0"><path fill="#fff" d="M0 0h80v70H0z"/></clipPath></defs></svg>
